src/assets/icons/switch-toggle.svg

<svg fill="none" viewBox="0 0 24 24"><path stroke="currentColor" stroke-linecap="round" stroke-linejoin="round" stroke-width="1.5" d="M19 12a7 7 0 0 1-7 7c-3.866 0-7.225-3.892-7.225-3.892m0 0h3.164m-3.164 0v3.5M5 12c0-3.864 3.108-7 7-7 4.669 0 7 3.892 7 3.892m0 0v-3.5m0 3.5h-3.108"/></svg>

<svg width="24" height="24" viewBox="0 0 24 24" fill="none" xmlns="http://www.w3.org/2000/svg">
  <path d="M19 12C19 15.866 15.866 19 12 19C8.134 19 4.775 15.108 4.775 15.108M4.775 15.108H7.939M4.775 15.108V18.608M5 12C5 8.136 8.108 5 12 5C16.669 5 19 8.892 19 8.892M19 8.892V5.392M19 8.892H15.892" stroke="#314158" stroke-width="1.5" stroke-linecap="round" stroke-linejoin="round"/>
</svg>
